X:7149
T:The Old Favourite
O:england
M:6/8
L:1/8
C:Trad
R:Slide
K:G
A|B2 B BAB|dBA G2B|ded d2B|ded B2A|B2 B BAB|dBA G2B|ded B2A|G3 G2 A:|
d|ggg fff|eee d2B|ded d2B|ded B2d|ggg fff|eee d2B|1 ded B2A|G3 GBd:|2
dge dge|dge dBA|


